X:65
T: Beans in the Pot (with piano acc.)
C: BB
R: polka
M: 2/4
Q: 275
L: 1/8
V: 1 program 1 110 %fiddle
V: 2 volume=70 clef=bass m=D program 1 00
K: C
[V:1] "C"cG G>B|"Am"c>d ed|"C"cG cG|"G"ED D2|"C"cG G>B|"F"c>d ef|\
"C"g>e "F"cA | "Am"AG "G"G2 |
[V:2] [C,4G,4E4]|[A,,4E,4C4]|[C,2E2G,2][A,2E2c2]|[E,2G2B,2][G,2D2B2]|\
[C,2E2G,2][G,,2D2B,2]|[F,,4A,4C4]|[C,2G,2E2][F,2A2C2]|[A,,2E,2C2][G,,2D,2B,2]|
%
[V:1] "C"cG G>B|"Am"c>d ed|"C"cG cG|"G"ED DB|"F"cF GF|"C"Ec "F"AF|\
"C"E>F GE | "G"DB, "C"C2 ||
[V:2] [C,4G,4E4]|[A,,4E,4C4]|[C,2E2G,2][A,2E2c2]|[E,2G2B,2][G,2D2B2]|[F,,4A,4C,4]|\
[C,2G,2E2][F,,2A,2C,2]|[C,2G,2E2][E,2G2C2]|[G,2D2B2][C,2G,2E2]||
%
[V:1] "Am"e>c ea|"G"g>d gb|"Am"ab ag|"G"ed g2|"Dm"a>f df|"Am"g>e cA|\
"Em"Bc de |"Am"cB A2 :|
[V:2] [A,,4E,4C4]|[G,,4D4B,4]|A,,2[A2C2E2]|G,,2[G2D2B2]|[D,4A,4F4]|[A,,4E,4C4]|\
E,2[E2G2B2]| A,,2[E,2C2]:|

%%%%%%%%%%%%%%%%%%%%%%%%%%%%%%%%%%%%%%%%%%%

